X: 1
T: The Templehouse
R: reel
M: 4/4
L: 1/8
K: Edor
|EFGA BFAF|D2FD ADFD|EFGA BEED|B2Ac BEED|
EFGA BFAF|D2FD ADFD|EFGA BEED|BdAc Bee2||
gfef gfeg|fdde fdd2|gfef gfed|BcAc Bee2|
gfef gfeg|fedc dfaf|e2ef gfed|B2Ac BEED||


Tune 827	Setting 13977

